images/sidebar_phone.svg

<svg width="18" height="20" viewBox="0 0 18 20" fill="none" xmlns="http://www.w3.org/2000/svg">
<path d="M15.1298 12.4938C14.4999 11.7677 13.681 11.7677 13.0248 12.4938C12.5313 13.0397 12.0431 13.5799 11.5497 14.1259C11.4132 14.2769 11.3029 14.306 11.1402 14.2188C10.841 14.0097 10.484 13.8587 10.1848 13.6438C8.76217 12.6448 7.56003 11.3727 6.49438 9.92647C5.97468 9.20042 5.51272 8.44534 5.182 7.56828C5.12951 7.38822 5.12951 7.29529 5.266 7.14427C5.7857 6.62733 6.24765 6.08715 6.74111 5.54116C7.42354 4.78608 7.42354 3.90902 6.74111 3.15393C6.33165 2.70088 5.94843 2.27687 5.56522 1.85286C5.15576 1.39981 4.77254 0.946761 4.36308 0.522751C3.73314 -0.17425 2.91421 -0.17425 2.25802 0.522751C1.76457 1.06874 1.27636 1.60891 0.78291 2.1549C0.315704 2.67184 0.074226 3.27591 0.0164813 3.9671C-0.0675109 5.08811 0.179216 6.17427 0.536183 7.23139C1.27636 9.43857 2.39451 11.3437 3.73314 13.1269C5.56522 15.5489 7.74901 17.4541 10.295 18.8132C11.4447 19.4173 12.6206 19.8994 13.8752 19.9923C14.7781 20.0504 15.5445 19.7832 16.1692 19.0223C16.5787 18.4764 17.0721 18.0233 17.5079 17.5122C18.164 16.7571 18.164 15.851 17.5079 15.1249C16.7152 14.2479 15.9225 13.3708 15.1298 12.4938Z" fill="white"/>
</svg>

<svg width="18" height="20" fill="none" xmlns="http://www.w3.org/2000/svg"><path d="M15.13 12.494c-.63-.726-1.449-.726-2.105 0l-1.475 1.632c-.137.15-.247.18-.41.093-.299-.21-.656-.36-.955-.575-1.423-1-2.625-2.271-3.69-3.718-.52-.726-.982-1.48-1.313-2.358-.052-.18-.052-.273.084-.424.52-.517.982-1.057 1.475-1.603.683-.755.683-1.632 0-2.387L5.565 1.853C5.155 1.4 4.773.947 4.363.523c-.63-.697-1.449-.697-2.105 0L.783 2.155c-.467.517-.709 1.12-.767 1.812-.084 1.121.163 2.207.52 3.264.74 2.208 1.859 4.113 3.197 5.896 1.832 2.422 4.016 4.327 6.562 5.686 1.15.604 2.326 1.086 3.58 1.18.903.057 1.67-.21 2.294-.97.41-.547.903-1 1.339-1.51.656-.756.656-1.662 0-2.388l-2.378-2.631Z" fill="#fff"/></svg>
